resources/haticons/SVG/move_to_inbox.svg

<!-- Generated by IcoMoon.io -->
<svg version="1.1" xmlns="http://www.w3.org/2000/svg" width="24" height="24" viewBox="0 0 24 24">
<title>move_to_inbox</title>
<path d="M15.984 9.984l-3.984 4.031-3.984-4.031h1.969v-3h4.031v3h1.969zM18.984 15v-9.984h-14.016v9.984h4.031q0 1.219 0.891 2.109t2.109 0.891 2.109-0.891 0.891-2.109h3.984zM18.984 3q0.797 0 1.406 0.609t0.609 1.406v13.969q0 0.797-0.609 1.406t-1.406 0.609h-14.016q-0.844 0-1.406-0.586t-0.563-1.43v-13.969q0-0.844 0.563-1.43t1.406-0.586h14.016z"></path>
</svg>

<svg xmlns="http://www.w3.org/2000/svg" width="24" height="24"><path d="M15.984 9.984L12 14.015 8.016 9.984h1.969v-3h4.031v3h1.969zm3 5.016V5.016H4.968V15h4.031q0 1.219.891 2.109t2.109.891 2.109-.891.891-2.109h3.984zm0-12q.797 0 1.406.609t.609 1.406v13.969q0 .797-.609 1.406t-1.406.609H4.968q-.844 0-1.406-.586t-.563-1.43V5.014q0-.844.563-1.43t1.406-.586h14.016z"/></svg>
